X: 4791
T: Boys Of School Hill
R: hornpipe
M: 4/4
K: Dmajor
|:d>B|A2 f2 e2 d2|(3BBB B>A B>cd>e|f>ag>f e>gf>e|d>fe>d f>ed>B|
A2 f2 e2 d2|(3BBB B>A B>cd>e|f>ag>f e>gf>e|d2 d2 d2:|
|:f>g|a>fd>f a2 g>f|e>fg>a b2 a>g|f>ag>f e>gf>e|d>fe>d f>ed>B|
A2 f2 e2 d2|(3BBB B>A B>cd>e|f>ag>f e>gf>e|d2 d2 d2:|

